X:1
T: Crooked Stove Pipe
C: Kevin Briggs
R:Reel
Q: 232
K:G
M:4/4
L:1/8
d2|G2 B2 Bc dB|G2 B2 Bc dB|G2 B2 e3B|d2 c2 c3A|F2 A2 AB cA|F2 A2 AB cA|F2 A2 d3A|c2 B2 B2 d2|
G2 B2 Bc dB|G2 B2 Bc dB|G2 B2 e3B|d2 c2 c3A|F2 A2 AB cA|F2 A2 AB cd|e2 dd e2 f2|g4 g2 ga|
b2 bc' b2 a2|g2 ga g2 e2|f2 e2 f2 g2|a2 g2 a2 b2|c'2 c'd' c'2 a2|f2 fg f2 e2|d2 dd e2 f2|g4 g2 ga|
b2 bc' b2 a2|g2 ga g2 e2|f2 e2 f2 g2|a2 g2 a2 b2|c'2 c'd' c'2 a2|f2 fg f2 e2|d2 dd e2 f2|g4 g2||
